X:6794
T:The Foxhunters
O:england
R:Slip Jig
M:9/8
S:Unknown fiddler
D:Session tape ?
H:Played after slow air (John O'Dwyer of the Glen)
H:Followed by 31
K:G
B3 B2A G2A | B2E E2F G2A | B3 B2A G2B | A2D DEF E2D :|
d2f fef g2e | f3 {a}fef e2d | d2f fef g2b | a2f d2f e2d ||


